X: 168
T: Step Stately (Jack Pudding)
M:6/8
L:1/8
Q:160
S:Playford
O:Manuscript
A:English
K:Gm
D|G2 G A2 G|B2 G c2 G|d B2 A2 G|G3 G2 D|G2 G A2 G|B2 G c2 G|d B2 A2 G|G3 G3:|
|: g|f d2 e2 c|d B2 c2 A|B G2 A F2|B3 B2 B|c A2 d2 A|^F D2 B c|d B2 c A2|G3 G3:|

